!!!COM:	Bach, Johann Sebastian
!!!OMV:	Oh God, how many heart pains
!!!OTL:	Oh God, how many heart pains
**kern	**fb	**kern	**kern	**kern	**kern	**kern	**kern	**kern	**kern	**kern	**kern	**kern	**kern	**kern
*part14	*part14	*part13	*part12	*part11	*part10	*part9	*part8	*part7	*part6	*part5	*part4	*part3	*part2	*part1
*staff14	*	*staff13	*staff12	*staff11	*staff10	*staff9	*staff8	*staff7	*staff6	*staff5	*staff4	*staff3	*staff2	*staff1
*I"Continuo	*	*I"Voice	*I"Voice	*I"Voice	*I"Voice	*I"Viola	*I"Violin	*I"Violin	*I"Oboe	*I"Oboe	*I"Timpani	*I"B♭ Trumpet	*I"B♭ Trumpet	*I"B♭ Trumpet
*I'Cont.	*	*I'V	*I'V	*I'V	*I'V	*I'Vla.	*I'Vln.	*I'Vln.	*I'Ob.	*I'Ob.	*I'Timp.	*I'B♭ Tpt.	*I'B♭ Tpt.	*I'B♭ Tpt.
*clefF4	*	*clefF4	*clefGv2	*clefG2	*clefG2	*clefC3	*clefG2	*clefG2	*clefG2	*clefG2	*clefF4	*clefG2	*clefG2	*clefG2
*Trd0c0	*	*	*	*	*	*	*	*	*	*	*	*	*	*
*k[f#c#]	*	*k[f#c#]	*k[f#c#]	*k[f#c#]	*k[f#c#]	*k[f#c#]	*k[f#c#]	*k[f#c#]	*k[f#c#]	*k[f#c#]	*k[f#c#]	*k[f#c#]	*k[f#c#]	*k[f#c#]
*M4/4	*	*M4/4	*M4/4	*M4/4	*M4/4	*M4/4	*M4/4	*M4/4	*M4/4	*M4/4	*M4/4	*M4/4	*M4/4	*M4/4
*met(c)	*	*met(c)	*met(c)	*met(c)	*met(c)	*met(c)	*met(c)	*met(c)	*met(c)	*met(c)	*met(c)	*met(c)	*met(c)	*met(c)
4r	.	4r	4r	4r	4r	4r	4r	4r	4r	4r	4r	4r	4r	8r
.	.	.	.	.	.	.	.	.	.	.	.	.	.	8a
=2	=2	=2	=2	=2	=2	=2	=2	=2	=2	=2	=2	=2	=2	=2
8DL	.	1r	1r	1r	1r	1r	1r	1r	2r	4r	1r	1r	1r	16ddLL
.	.	.	.	.	.	.	.	.	.	.	.	.	.	16ee
8DDJ	.	.	.	.	.	.	.	.	.	.	.	.	.	16ff#
.	.	.	.	.	.	.	.	.	.	.	.	.	.	16eeJJ
4r	.	.	.	.	.	.	.	.	.	16r	.	.	.	8ddL
.	.	.	.	.	.	.	.	.	.	16aLL	.	.	.	.
.	.	.	.	.	.	.	.	.	.	16b	.	.	.	8aJ
.	.	.	.	.	.	.	.	.	.	16cc#JJ	.	.	.	.
2r	.	.	.	.	.	.	.	.	16r	16ddLL	.	.	.	8aL
.	.	.	.	.	.	.	.	.	16aLL	16a	.	.	.	.
.	.	.	.	.	.	.	.	.	16b	16dd	.	.	.	8f#
.	.	.	.	.	.	.	.	.	16cc#JJ	16eeJJ	.	.	.	.
.	.	.	.	.	.	.	.	.	16ddLL	16ff#LL	.	.	.	8f#
.	.	.	.	.	.	.	.	.	16a	16dd	.	.	.	.
.	.	.	.	.	.	.	.	.	16dd	16ff#	.	.	.	8dJ
.	.	.	.	.	.	.	.	.	16eeJJ	16ggJJ	.	.	.	.
=3!|:	=3!|:	=3!|:	=3!|:	=3!|:	=3!|:	=3!|:	=3!|:	=3!|:	=3!|:	=3!|:	=3!|:	=3!|:	=3!|:	=3!|:
8r	.	1r	1r	1r	1r	8r	8r	8r	8ff#L	8aaL	8r	8r	8r	8dL
16DLL	.	.	.	.	.	8dL	8ff#L	8aaL	8ff#	8aa	8DL	8aL	8ff#L	8aa
16C#JJ	.	.	.	.	.	.	.	.	.	.	.	.	.	.
16DLL	7 4 2	.	.	.	.	8A	8ee	8gg	8ee	8gg	8AA	8a	8ee	8gg
16E	.	.	.	.	.	.	.	.	.	.	.	.	.	.
16F#	6	.	.	.	.	8aJ	8ddJ	8ff#J	8ddJ	8ff#J	8DJ	8aJ	8ddJ	8ff#J
16GJJ	.	.	.	.	.	.	.	.	.	.	.	.	.	.
16ALL	6 4	.	.	.	.	8aL	8ddL	8ff#L	8ddL	8ff#L	8AAL	8aL	8ddL	8ff#L
16G	.	.	.	.	.	.	.	.	.	.	.	.	.	.
16A	5 3	.	.	.	.	8AJ	8cc#J	8eeJ	8cc#J	8eeJ	8AAJ	8aJ	8aJ	8eeJ
16BJJ	.	.	.	.	.	.	.	.	.	.	.	.	.	.
16ALL	.	.	.	.	.	4r	4r	4r	4r	4r	4r	4r	4r	8r
16G	.	.	.	.	.	.	.	.	.	.	.	.	.	.
16F#	.	.	.	.	.	.	.	.	.	.	.	.	.	8a
16EJJ	.	.	.	.	.	.	.	.	.	.	.	.	.	.
=4	=4	=4	=4	=4	=4	=4	=4	=4	=4	=4	=4	=4	=4	=4
!!pagebreak:original
8DL	.	1r	1r	1r	1r	1r	1r	1r	8r	4r	1r	1r	1r	16ddLL
.	.	.	.	.	.	.	.	.	.	.	.	.	.	16eeJ
8DDJ	.	.	.	.	.	.	.	.	8ddL	.	.	.	.	[8ff#J
4r	.	.	.	.	.	.	.	.	8dd	8r	.	.	.	16ff#LL]
.	.	.	.	.	.	.	.	.	.	.	.	.	.	16gg
.	.	.	.	.	.	.	.	.	8aJ	8dd	.	.	.	16ff#
.	.	.	.	.	.	.	.	.	.	.	.	.	.	16eeJJ
2r	.	.	.	.	.	.	.	.	8aL	8ddL	.	.	.	16ff#LL
.	.	.	.	.	.	.	.	.	.	.	.	.	.	16eeJ
.	.	.	.	.	.	.	.	.	8f#	8a	.	.	.	[8ddJ
.	.	.	.	.	.	.	.	.	8f#	8a	.	.	.	16ddLL]
.	.	.	.	.	.	.	.	.	.	.	.	.	.	16a
.	.	.	.	.	.	.	.	.	8dJ	8f#J	.	.	.	16dd
.	.	.	.	.	.	.	.	.	.	.	.	.	.	16eeJJ
=5	=5	=5	=5	=5	=5	=5	=5	=5	=5	=5	=5	=5	=5	=5
8r	.	1r	1r	1r	1r	8r	8r	8r	8dL	8f#L	8r	8r	8r	16ff#LL
.	.	.	.	.	.	.	.	.	.	.	.	.	.	16ddJ
16DLL	.	.	.	.	.	8dL	8ff#L	8aaL	8ff#	8aa	8DL	8aL	8ff#L	8aaJ
16C#JJ	.	.	.	.	.	.	.	.	.	.	.	.	.	.
16DLL	7 4 2	.	.	.	.	8A	8ee	8gg	8ee	8gg	8AA	8a	8ee	8ggL
16E	.	.	.	.	.	.	.	.	.	.	.	.	.	.
16F#	6	.	.	.	.	8aJ	8ddJ	8ff#J	8ddJ	8ff#J	8DJ	8aJ	8ddJ	8ff#J
16GJJ	.	.	.	.	.	.	.	.	.	.	.	.	.	.
16ALL	6 4	.	.	.	.	8aL	8ddL	8ff#L	8ddL	8ff#L	8AAL	8aL	8ddL	8ff#L
16G	.	.	.	.	.	.	.	.	.	.	.	.	.	.
16A	5 3	.	.	.	.	8AJ	8cc#J	8eeJ	8cc#J	8eeJ	8AAJ	8aJ	8aJ	8eeJ
16BJJ	.	.	.	.	.	.	.	.	.	.	.	.	.	.
16ALL	.	.	.	.	.	4r	4r	4r	4r	4r	4r	4r	4r	8r
16G	.	.	.	.	.	.	.	.	.	.	.	.	.	.
16F#	.	.	.	.	.	.	.	.	.	.	.	.	.	8aa
16EJJ	.	.	.	.	.	.	.	.	.	.	.	.	.	.
=6	=6	=6	=6	=6	=6	=6	=6	=6	=6	=6	=6	=6	=6	=6
!!pagebreak:original
8DL	.	1r	1r	1r	1r	4r	4r	4r	8r	8r	2r	2r	2r	16ff#LL
.	.	.	.	.	.	.	.	.	.	.	.	.	.	16ff#
8C#	6 5	.	.	.	.	.	.	.	8aL	8eeL	.	.	.	16gg
.	.	.	.	.	.	.	.	.	.	.	.	.	.	16aaJJ
8D	.	.	.	.	.	8r	8r	8r	8aJ	8ff#J	.	.	.	16ff#LL
.	.	.	.	.	.	.	.	.	.	.	.	.	.	16ff#
8C#J	6 5	.	.	.	.	8a	8ee	8ee	8r	8r	.	.	.	16gg
.	.	.	.	.	.	.	.	.	.	.	.	.	.	16aaJJ
8DL	5	.	.	.	.	8aL	8ddL	8ff#L	8r	8r	8r	8r	8r	8ff#L
16dL	6	.	.	.	.	16ddL	16ff#L	16bbL	16ff#LL	16bbLL	16DLL	16ddLL	16ddLL	8bbJ
16c#JJ	.	.	.	.	.	16aJJ	16eeJJ	16aaJJ	16eeJJ	16aaJJ	16DJJ	16aJJ	16cc#JJ	.
8dL	.	.	.	.	.	8f#	8ff#	8bb	8ff#	8bb	8D	8f#	8dd	16r
.	.	.	.	.	.	.	.	.	.	.	.	.	.	16aaLL
8BJ	.	.	.	.	.	8r	8r	8r	8r	8r	8r	8r	8r	16gg
.	.	.	.	.	.	.	.	.	.	.	.	.	.	16ff#JJ
=7	=7	=7	=7	=7	=7	=7	=7	=7	=7	=7	=7	=7	=7	=7
8C#L	6_	1r	1r	1r	1r	4r	4r	4r	8r	8r	2r	2r	2r	16eeLL
.	..	.	.	.	.	.	.	.	.	.	.	.	.	16ee
8BB	.	.	.	.	.	.	.	.	8aL	8ddL	.	.	.	16ff#
.	.	.	.	.	.	.	.	.	.	.	.	.	.	16ggJJ
8C#	.	.	.	.	.	8r	8r	8r	8aJ	8eeJ	.	.	.	16eeLL
.	.	.	.	.	.	.	.	.	.	.	.	.	.	16ee
8BBJ	.	.	.	.	.	8b	8a	8dd	8r	8r	.	.	.	16ff#
.	.	.	.	.	.	.	.	.	.	.	.	.	.	16ggJJ
8C#L	6	.	.	.	.	8eL	8bL	8eeL	8r	8r	8r	8r	8r	8eeL
16c#L	6	.	.	.	.	16AL	16eeL	16aaL	16eeLL	16aaLL	16AALL	16aLL	16eeLL	8aaJ
16BJJ	.	.	.	.	.	16BJJ	16ddJJ	16ggJJ	16ddJJ	16ggJJ	16AAJJ	16aJJ	16ddJJ	.
8c#L	.	.	.	.	.	8A	8ee	8aa	8ee	8aa	8AA	8a	8ee	16r
.	.	.	.	.	.	.	.	.	.	.	.	.	.	16ggLL
8AJ	.	.	.	.	.	8r	8r	8r	8r	8r	8r	8r	8r	16ff#
.	.	.	.	.	.	.	.	.	.	.	.	.	.	16eeJJ
=8	=8	=8	=8	=8	=8	=8	=8	=8	=8	=8	=8	=8	=8	=8
!!pagebreak:original
8BBL	.	1r	1r	1r	1r	2f#	[1b	[1dd	8r	8r	1r	1r	1r	16ddLL
.	.	.	.	.	.	.	.	.	.	.	.	.	.	16ddd
8B	.	.	.	.	.	.	.	.	8ddL	8ff#L	.	.	.	16ccc#
.	.	.	.	.	.	.	.	.	.	.	.	.	.	16bbJJ
8A	6 4 2	.	.	.	.	.	.	.	8dd	8ff#	.	.	.	16ddLL
.	.	.	.	.	.	.	.	.	.	.	.	.	.	16ccc#
8AAJ	.	.	.	.	.	.	.	.	8ddJ	8ff#J	.	.	.	16bb
.	.	.	.	.	.	.	.	.	.	.	.	.	.	16aaJJ
8GGL	.	.	.	.	.	4B	.	.	8r	8r	.	.	.	16ddLL
.	.	.	.	.	.	.	.	.	.	.	.	.	.	16bb
8G	.	.	.	.	.	.	.	.	8ddL	8ggL	.	.	.	16aa
.	.	.	.	.	.	.	.	.	.	.	.	.	.	16ggJJ
8F#	6	.	.	.	.	4d	.	.	8ff#	8aa	.	.	.	16ddLL
.	.	.	.	.	.	.	.	.	.	.	.	.	.	16aa
8FF#J	.	.	.	.	.	.	.	.	8ff#J	8aaJ	.	.	.	16gg
.	.	.	.	.	.	.	.	.	.	.	.	.	.	16ff#JJ
=9	=9	=9	=9	=9	=9	=9	=9	=9	=9	=9	=9	=9	=9	=9
16EELL	.	1r	1r	1r	1r	8eL	8bL]	8ddL]	8r	8r	2r	2r	2r	8ggL
16FF#	.	.	.	.	.	.	.	.	.	.	.	.	.	.
16GG	.	.	.	.	.	8B	8bb	16eL	16ggLL	16bbLL	.	.	.	8ee
16AAJJ	.	.	.	.	.	.	.	16f#JJ	16ff#JJ	16aaJJ	.	.	.	.
16BBLL	6 4	.	.	.	.	8e	8gg	16gLL	8ee	8gg	.	.	.	8ff#
16C#	.	.	.	.	.	.	.	16e	.	.	.	.	.	.
16D	.	.	.	.	.	8aJ	8ddJ	16f#	8r	8r	.	.	.	8aJ
16BBJJ	.	.	.	.	.	.	.	16gJJ	.	.	.	.	.	.
16C#LL	6 5	.	.	.	.	8r	8r	16aLL	8r	8r	8r	8r	8r	8aL
16AA	.	.	.	.	.	.	.	16e	.	.	.	.	.	.
16C#	.	.	.	.	.	8aL	8eeL	16a	8aL	16ggLL	16AALL	16aLL	16eeLL	8ggJ
16EJJ	.	.	.	.	.	.	.	16cc#JJ	.	16ff#JJ	16AAJJ	16aJJ	16eeJJ	.
8AL	7	.	.	.	.	8e	8cc#	16eeLL	8cc#	8ggL	8AAL	8aL	8eeL	8r
.	.	.	.	.	.	.	.	16cc#	.	.	.	.	.	.
8C#J	6	.	.	.	.	8eJ	8eeJ	16a	8eeJ	8aaJ	8AAJ	8aJ	8eeJ	8aa
.	.	.	.	.	.	.	.	16aaJJ	.	.	.	.	.	.
=10	=10	=10	=10	=10	=10	=10	=10	=10	=10	=10	=10	=10	=10	=10
!!pagebreak:original
8DL	.	1r	1r	1r	1r	8f#L	8aL	16ggLL	8ddL	16ggLL	8DL	8aL	8ddL	16ggLL
.	.	.	.	.	.	.	.	16ff#	.	16ff#	.	.	.	16ff#
8BB	.	.	.	.	.	8f#	8b	16ee	8dd	16ee	16DL	16dL	8ff#J	16ee
.	.	.	.	.	.	.	.	16ddJJ	.	16ddJJ	16DJJ	16dJJ	.	16ddJJ
8GG	7 5	.	.	.	.	8B	8b	8ff#L	8dd	8ff#L	8DL	8dL	8bbL	8ff#L
8AAJ	.	.	.	.	.	8eJ	8cc#J	8eeJ	8cc#J	8eeJ	8AAJ	8aJ	16aaL	8eeJ
.	.	.	.	.	.	.	.	.	.	.	.	.	16ggJJ	.
8BBL	5	.	.	.	.	8b	8f#	8ddL	8dd	8ddL	8D	8d	8ff#	[4dd
16BL	.	.	.	.	.	8r	8r	16dddL	8r	16dddL	8r	8r	8r	.
16AJJ	.	.	.	.	.	.	.	16ccc#JJ	.	16ccc#JJ	.	.	.	.
8BL	.	.	.	.	.	8r	8r	8dddL	8r	8dddL	4r	4r	4r	16ddLL]
.	.	.	.	.	.	.	.	.	.	.	.	.	.	32eeL
.	.	.	.	.	.	.	.	.	.	.	.	.	.	32ff#J
8BBJ	6	.	.	.	.	8b	8gg	8ddJ	8dd	8ddJ	.	.	.	16gg
.	.	.	.	.	.	.	.	.	.	.	.	.	.	32ff#L
.	.	.	.	.	.	.	.	.	.	.	.	.	.	32eeJJJ
=11	=11	=11	=11	=11	=11	=11	=11	=11	=11	=11	=11	=11	=11	=11
8FF#L	6	1r	1r	1r	1r	8a	8aa	8ddL	8a	8ddL	8D	8f#	8aa	[4dd
16F#L	.	.	.	.	.	8r	8r	16aaL	8r	16aaL	8r	8r	8r	.
16EJJ	.	.	.	.	.	.	.	16ggJJ	.	16ggJJ	.	.	.	.
8F#L	.	.	.	.	.	8r	8r	8aaL	8r	8aaL	4r	4r	4r	16ddLL]
.	.	.	.	.	.	.	.	.	.	.	.	.	.	32eeL
.	.	.	.	.	.	.	.	.	.	.	.	.	.	32ff#J
8DJ	.	.	.	.	.	8a	8ccn	8ddJ	8aa	8ddJ	.	.	.	16gg
.	.	.	.	.	.	.	.	.	.	.	.	.	.	32ff#L
.	.	.	.	.	.	.	.	.	.	.	.	.	.	32eeJJJ
8GL	.	.	.	.	.	8g	8b	8bb	8gg	8bb	2r	2r	2r	16ddLL
.	.	.	.	.	.	.	.	.	.	.	.	.	.	32eeL
.	.	.	.	.	.	.	.	.	.	.	.	.	.	32ff#J
8GG	.	.	.	.	.	8r	8r	8r	8r	8r	.	.	.	16gg
.	.	.	.	.	.	.	.	.	.	.	.	.	.	32ff#L
.	.	.	.	.	.	.	.	.	.	.	.	.	.	32eeJJJ
8FF#	6	.	.	.	.	8a	8dd	8aa	8dd	8aa	.	.	.	16ddLL
.	.	.	.	.	.	.	.	.	.	.	.	.	.	32eeL
.	.	.	.	.	.	.	.	.	.	.	.	.	.	32ff#J
8F#J	.	.	.	.	.	8r	8r	8r	8r	8r	.	.	.	16gg
.	.	.	.	.	.	.	.	.	.	.	.	.	.	32ff#L
.	.	.	.	.	.	.	.	.	.	.	.	.	.	32eeJJJ
=12	=12	=12	=12	=12	=12	=12	=12	=12	=12	=12	=12	=12	=12	=12
!!pagebreak:original
8EL	7 #	1r	1r	1r	1r	8b	8ee	8gg#XL	8dd	8gg#XL	1r	1r	1r	8ddL
8EE	.	.	.	.	.	8r	8r	16ddL	8r	16ddL	.	.	.	8gg#XJ
.	.	.	.	.	.	.	.	16cc#JJ	.	16cc#JJ	.	.	.	.
8DD	6 #4| 2	.	.	.	.	8b	8ee	8bL	8g#X	8bL	.	.	.	16r
.	.	.	.	.	.	.	.	.	.	.	.	.	.	16bbLL
8DJ	.	.	.	.	.	8r	8r	8bbJ	8r	8bbJ	.	.	.	16aa
.	.	.	.	.	.	.	.	.	.	.	.	.	.	16gg#JJ
16C#LL	.	.	.	.	.	8e	8ee	8aaL	8e	8aaL	.	.	.	8aaL
16d	.	.	.	.	.	.	.	.	.	.	.	.	.	.
16c#	.	.	.	.	.	8r	8r	16aL	8r	16aL	.	.	.	8aJ
16BJJ	.	.	.	.	.	.	.	16bJJ	.	16bJJ	.	.	.	.
16ALL	7	.	.	.	.	8a	8ee	8cc#L	8ee	8cc#L	.	.	.	8r
16G	.	.	.	.	.	.	.	.	.	.	.	.	.	.
16F#	.	.	.	.	.	8r	8r	8ggnJ	8r	8ggnJ	.	.	.	8ggn
16EJJ	.	.	.	.	.	.	.	.	.	.	.	.	.	.
=13	=13	=13	=13	=13	=13	=13	=13	=13	=13	=13	=13	=13	=13	=13
16DLL	.	2r	2r	2r	2r	8aL	8aL	8ff#L	8aL	8ff#L	8r	8r	8r	8ff#L
16C#	.	.	.	.	.	.	.	.	.	.	.	.	.	.
16BB	.	.	.	.	.	8b	8ff#	8ddd	8ff#	8ddd	16DLL	8ddL	8ff#L	8ddd
16AAJJ	.	.	.	.	.	.	.	.	.	.	16DJJ	.	.	.
8GGL	6 5	.	.	.	.	8e	8gg	8ee	8gg	8ee	8DL	8gg	8bb	8ee
8AAJ	.	.	.	.	.	8aJ	8eeJ	8ccc#J	8eeJ	8ccc#J	8AAJ	8eeJ	8aaJ	8ccc#J
8DDL	.	4r	4r	4r	4r	4a	4ff#	4dd	4dd	4dd	4D	4ff#	4aa	4ddd
16DL	.	.	.	.	.	.	.	.	.	.	.	.	.	.
16EJJ	.	.	.	.	.	.	.	.	.	.	.	.	.	.
16DLL	.	4D	4A	4d	4f#	16r	16r	16r	4f#	4f#	4r	4r	4r	4r
16Cn	.	.	.	.	.	16f#LL	16f#LL	16f#LL	.	.	.	.	.	.
16BB	.	.	.	.	.	16g	16g	16g	.	.	.	.	.	.
16AAJJ	.	.	.	.	.	16aJJ	16aJJ	16aJJ	.	.	.	.	.	.
=14	=14	=14	=14	=14	=14	=14	=14	=14	=14	=14	=14	=14	=14	=14
!!pagebreak:original
8GGL	.	4G	8BL	8dL	4b	16dLL	16dLL	16dLL	4b	4b	1r	1r	1r	1r
.	.	.	.	.	.	16b	16b	16b	.	.	.	.	.	.
8G	.	.	8c#J	8eJ	.	16a	16a	16a	.	.	.	.	.	.
.	.	.	.	.	.	16gJJ	16gJJ	16gJJ	.	.	.	.	.	.
8F#	6	4F#	4d	4f#	4a	16dLL	16dLL	16dLL	4a	4a	.	.	.	.
.	.	.	.	.	.	16a	16a	16a	.	.	.	.	.	.
8FF#J	.	.	.	.	.	16g	16g	16g	.	.	.	.	.	.
.	.	.	.	.	.	16f#JJ	16f#JJ	16f#JJ	.	.	.	.	.	.
8BBL	6	4B	4G	8BL	4g	16dLL	16dLL	16dLL	4g	4g	.	.	.	.
.	.	.	.	.	.	16g	16g	16g	.	.	.	.	.	.
8B	.	.	.	8c#J	.	16f#	16f#	16f#	.	.	.	.	.	.
.	.	.	.	.	.	16eJJ	16eJJ	16eJJ	.	.	.	.	.	.
8A	6 4	4A	4A	4d	4f#	16dLL	16dLL	16dLL	4f#	4f#	.	.	.	.
.	.	.	.	.	.	16f#	16f#	16f#	.	.	.	.	.	.
8AAJ	.	.	.	.	.	16e	16e	16e	.	.	.	.	.	.
.	.	.	.	.	.	16dJJ	16dJJ	16dJJ	.	.	.	.	.	.
=15	=15	=15	=15	=15	=15	=15	=15	=15	=15	=15	=15	=15	=15	=15
8GGL	6 5	4G	8BL	4d	2e	16eLL	16eLL	16eLL	2e	2e	1r	1r	1r	4r
.	.	.	.	.	.	16dd	16dd	16dd	.	.	.	.	.	.
8G	.	.	8GJ	.	.	16cc#	16cc#	16cc#	.	.	.	.	.	.
.	.	.	.	.	.	16bJJ	16bJJ	16bJJ	.	.	.	.	.	.
8A	.	4A	8EL	4c#	.	16aLL	16aLL	16aLL	.	.	.	.	.	8r
.	.	.	.	.	.	16g	16g	16g	.	.	.	.	.	.
8AAJ	.	.	8AJ	.	.	16f#	16f#	16f#	.	.	.	.	.	16aaLL
.	.	.	.	.	.	16eJJ	16eJJ	16eJJ	.	.	.	.	.	16ggJJ
8DL	.	4D	4A	4d	4f#	4d	4d	4d	4f#	4f#	.	.	.	16ff#LL
.	.	.	.	.	.	.	.	.	.	.	.	.	.	16ee
16F#L	.	.	.	.	.	.	.	.	.	.	.	.	.	16dd
16EJJ	.	.	.	.	.	.	.	.	.	.	.	.	.	16eeJJ
8DL	.	4r	4r	4r	4r	8r	8r	8r	4r	4r	.	.	.	16ff#LL
.	.	.	.	.	.	.	.	.	.	.	.	.	.	16gg
8C#J	#6\	.	.	.	.	8f#	8f#	8f#	.	.	.	.	.	16ff#
.	.	.	.	.	.	.	.	.	.	.	.	.	.	16ggJJ
=16	=16	=16	=16	=16	=16	=16	=16	=16	=16	=16	=16	=16	=16	=16
!!pagebreak:original
8BBL	.	1r	1r	1r	1r	16bLL	16bLL	16bLL	2r	4r	1r	1r	1r	[1ff#
.	.	.	.	.	.	16cc#	16cc#	16cc#	.	.	.	.	.	.
8BJ	.	.	.	.	.	16dd	16dd	16dd	.	.	.	.	.	.
.	.	.	.	.	.	16cc#JJ	16cc#JJ	16cc#JJ	.	.	.	.	.	.
4r	.	.	.	.	.	8bL	8bL	8bL	.	16r	.	.	.	.
.	.	.	.	.	.	.	.	.	.	16f#LL	.	.	.	.
.	.	.	.	.	.	8f#J	8f#J	8f#J	.	16g#X	.	.	.	.
.	.	.	.	.	.	.	.	.	.	16a#XJJ	.	.	.	.
2r	.	.	.	.	.	8f#L	8f#L	8f#L	16r	16bLL	.	.	.	.
.	.	.	.	.	.	.	.	.	16f#LL	16f#	.	.	.	.
.	.	.	.	.	.	8d	8d	8d	16g#X	16b	.	.	.	.
.	.	.	.	.	.	.	.	.	16a#XJJ	16cc#JJ	.	.	.	.
.	.	.	.	.	.	8d	8d	8d	16bLL	16ddLL	.	.	.	.
.	.	.	.	.	.	.	.	.	16f#	16b	.	.	.	.
.	.	.	.	.	.	8BJ	8BJ	8BJ	16b	16dd	.	.	.	.
.	.	.	.	.	.	.	.	.	16cc#JJ	16eeJJ	.	.	.	.
=17	=17	=17	=17	=17	=17	=17	=17	=17	=17	=17	=17	=17	=17	=17
8r	.	2r	2r	2r	2r	8BL	8BL	8BL	8ddL	8ff#L	1r	1r	1r	2.ff#]
16BBLL	.	.	.	.	.	8B	8dd	8ff#	8dd	8ff#	.	.	.	.
16AA#XJJ	.	.	.	.	.	.	.	.	.	.	.	.	.	.
16BBLL	7 4 2	.	.	.	.	8F#	8cc#	8ee	8cc#	8ee	.	.	.	.
16C#	.	.	.	.	.	.	.	.	.	.	.	.	.	.
16D	6	.	.	.	.	8f#J	8bJ	8ddJ	8bJ	8ddJ	.	.	.	.
16EJJ	.	.	.	.	.	.	.	.	.	.	.	.	.	.
16F#LL	6 4	4r	4r	4r	4r	8f#L	8bL	8ddL	8bL	8ddL	.	.	.	.
16E	.	.	.	.	.	.	.	.	.	.	.	.	.	.
16F#	#r5	.	.	.	.	8F#J	8a#XJ	8cc#J	8a#XJ	8cc#J	.	.	.	.
16GJJ	.	.	.	.	.	.	.	.	.	.	.	.	.	.
16F#LL	#	4F#	4f#	4a#X	4cc#	16r	16r	16r	4cc#	4cc#	.	.	.	4r
16E	.	.	.	.	.	16cc#LL	16cc#LL	16cc#LL	.	.	.	.	.	.
16D	.	.	.	.	.	16b	16b	16b	.	.	.	.	.	.
16C#JJ	.	.	.	.	.	16a#XJJ	16a#JJ	16a#XJJ	.	.	.	.	.	.
=18	=18	=18	=18	=18	=18	=18	=18	=18	=18	=18	=18	=18	=18	=18
!!pagebreak:original
8BBL	.	8BL	4f#	4b	4dd	16bLL	16bLL	16bLL	4dd	4dd	1r	1r	1r	1r
.	.	.	.	.	.	16b	16b	16b	.	.	.	.	.	.
8B	.	8F#	.	.	.	16cc#	16cc#	16cc#	.	.	.	.	.	.
.	.	.	.	.	.	16ddJJ	16ddJJ	16ddJJ	.	.	.	.	.	.
8G	5	8G	8dL	4b	4dd	16bLL	16bLL	16bLL	4dd	4dd	.	.	.	.
.	.	.	.	.	.	16b	16b	16b	.	.	.	.	.	.
8DJ	.	8DJ	8f#J	.	.	16cc#	16cc#	16cc#	.	.	.	.	.	.
.	.	.	.	.	.	16ddJJ	16ddJJ	16ddJJ	.	.	.	.	.	.
8EL	6 5	8EL	8gL	4b	8.cc#L	8cc#L	8cc#L	8cc#L	8.cc#L	8.cc#L	.	.	.	.
8C#	.	8C#J	8eJ	.	.	8bJ	8ggJ	8ggJ	.	.	.	.	.	.
.	.	.	.	.	32ddLL	.	.	.	32ddLL	32ddLL	.	.	.	.
.	.	.	.	.	32eeJJJ	.	.	.	32eeJJJ	32eeJJJ	.	.	.	.
8F#	#	4F#	8f#L	4a#X	4cc#	4a#X	16r	16r	4cc#	4cc#	.	.	.	.
.	.	.	.	.	.	.	16ggLL	16ggLL	.	.	.	.	.	.
8FF#J	.	.	8c#J	.	.	.	16ff#	16ff#	.	.	.	.	.	.
.	.	.	.	.	.	.	16eeJJ	16eeJJ	.	.	.	.	.	.
=19	=19	=19	=19	=19	=19	=19	=19	=19	=19	=19	=19	=19	=19	=19
8BBL	.	4BB	4d	4f#	4b	4b	16ddLL	16ddLL	2.b	2.b	1r	1r	1r	2r
.	.	.	.	.	.	.	16dd	16dd	.	.	.	.	.	.
8F#	6 4	.	.	.	.	.	16ee	16ee	.	.	.	.	.	.
.	.	.	.	.	.	.	16ff#JJ	16ff#JJ	.	.	.	.	.	.
8B	.	4r	4r	4r	4r	8r	16ddLL	16ddLL	.	.	.	.	.	.
.	.	.	.	.	.	.	16dd	16dd	.	.	.	.	.	.
8F#J	6 4	.	.	.	.	8d	16ee	16ee	.	.	.	.	.	.
.	.	.	.	.	.	.	16ff#JJ	16ff#JJ	.	.	.	.	.	.
8GL	6 5	2r	2r	2r	2r	8dL	8eeL	8eeL	.	.	.	.	.	4r
8EJ	.	.	.	.	.	16c#L	8bbJ	8bbJ	.	.	.	.	.	.
.	.	.	.	.	.	16BJJ	.	.	.	.	.	.	.	.
16ALL	.	.	.	.	.	8.c#L	16r	16r	4r	4r	.	.	.	8r
16G	.	.	.	.	.	.	16bbLL	16bbLL	.	.	.	.	.	.
16F#	.	.	.	.	.	.	16aa	16aa	.	.	.	.	.	8a
16EJJ	.	.	.	.	.	16dJk	16ggJJ	16ggJJ	.	.	.	.	.	.
=20	=20	=20	=20	=20	=20	=20	=20	=20	=20	=20	=20	=20	=20	=20
!!pagebreak:original
8DL	.	1r	1r	1r	1r	8d	8ff#	8ff#	2r	4r	1r	1r	1r	16ddLL
.	.	.	.	.	.	.	.	.	.	.	.	.	.	16ee
8DDJ	.	.	.	.	.	8r	8r	8r	.	.	.	.	.	16ff#
.	.	.	.	.	.	.	.	.	.	.	.	.	.	16eeJJ
4r	.	.	.	.	.	4r	4r	4r	.	16r	.	.	.	8ddL
.	.	.	.	.	.	.	.	.	.	16aLL	.	.	.	.
.	.	.	.	.	.	.	.	.	.	16b	.	.	.	8aJ
.	.	.	.	.	.	.	.	.	.	16cc#JJ	.	.	.	.
2r	.	.	.	.	.	2r	2r	2r	16r	16ddLL	.	.	.	8aL
.	.	.	.	.	.	.	.	.	16aLL	16a	.	.	.	.
.	.	.	.	.	.	.	.	.	16b	16dd	.	.	.	8f#
.	.	.	.	.	.	.	.	.	16cc#JJ	16eeJJ	.	.	.	.
.	.	.	.	.	.	.	.	.	16ddLL	16ff#LL	.	.	.	8f#
.	.	.	.	.	.	.	.	.	16a	16dd	.	.	.	.
.	.	.	.	.	.	.	.	.	16dd	16ff#	.	.	.	8dJ
.	.	.	.	.	.	.	.	.	16eeJJ	16ggJJ	.	.	.	.
=21:|!	=21:|!	=21:|!	=21:|!	=21:|!	=21:|!	=21:|!	=21:|!	=21:|!	=21:|!	=21:|!	=21:|!	=21:|!	=21:|!	=21:|!
8r	.	1r	1r	1r	1r	8r	8r	8r	8ff#L	8aaL	8r	8r	8r	8dL
16DLL	.	.	.	.	.	8dL	8ff#L	8aaL	8ff#	8aa	8DL	8aL	8ff#L	8aa
16C#JJ	.	.	.	.	.	.	.	.	.	.	.	.	.	.
16DLL	7 4 2	.	.	.	.	8A	8ee	8gg	8ee	8gg	8AA	8a	8ee	8gg
16E	.	.	.	.	.	.	.	.	.	.	.	.	.	.
16F#	6	.	.	.	.	8aJ	8ddJ	8ff#J	8ddJ	8ff#J	8DJ	8aJ	8ddJ	8ff#J
16GJJ	.	.	.	.	.	.	.	.	.	.	.	.	.	.
16ALL	6 4	.	.	.	.	8aL	8ddL	8ff#L	8ddL	8ff#L	8AAL	8aL	8ddL	8ff#L
16G	.	.	.	.	.	.	.	.	.	.	.	.	.	.
16A	5 3	.	.	.	.	8AJ	8cc#J	8eeJ	8cc#J	8eeJ	8AAJ	8aJ	8aJ	8eeJ
16BJJ	.	.	.	.	.	.	.	.	.	.	.	.	.	.
16ALL	.	.	.	.	.	4r	4r	4r	4r	4r	4r	4r	4r	8r
16G	.	.	.	.	.	.	.	.	.	.	.	.	.	.
16F#	.	.	.	.	.	.	.	.	.	.	.	.	.	8a
16EJJ	.	.	.	.	.	.	.	.	.	.	.	.	.	.
=22	=22	=22	=22	=22	=22	=22	=22	=22	=22	=22	=22	=22	=22	=22
!!pagebreak:original
8DL	.	1r	1r	1r	1r	1r	1r	1r	8r	4r	1r	1r	1r	16ddLL
.	.	.	.	.	.	.	.	.	.	.	.	.	.	16eeJ
8DDJ	.	.	.	.	.	.	.	.	8ddL	.	.	.	.	[8ff#J
4r	.	.	.	.	.	.	.	.	8dd	8r	.	.	.	16ff#LL]
.	.	.	.	.	.	.	.	.	.	.	.	.	.	16gg
.	.	.	.	.	.	.	.	.	8aJ	8dd	.	.	.	16ff#
.	.	.	.	.	.	.	.	.	.	.	.	.	.	16eeJJ
2r	.	.	.	.	.	.	.	.	8aL	8ddL	.	.	.	16ff#LL
.	.	.	.	.	.	.	.	.	.	.	.	.	.	16eeJ
.	.	.	.	.	.	.	.	.	8f#	8a	.	.	.	[8ddJ
.	.	.	.	.	.	.	.	.	8f#	8a	.	.	.	16ddLL]
.	.	.	.	.	.	.	.	.	.	.	.	.	.	16a
.	.	.	.	.	.	.	.	.	8dJ	8f#J	.	.	.	16dd
.	.	.	.	.	.	.	.	.	.	.	.	.	.	16eeJJ
=23	=23	=23	=23	=23	=23	=23	=23	=23	=23	=23	=23	=23	=23	=23
8r	.	2r	2r	2.r	2r	8r	8r	8r	8dL	8f#L	8r	8r	8r	16ff#LL
.	.	.	.	.	.	.	.	.	.	.	.	.	.	16ddJ
16DLL	.	.	.	.	.	8dL	8ff#L	8aaL	8ff#	8aa	8DL	8aL	8ff#L	8aaJ
16C#JJ	.	.	.	.	.	.	.	.	.	.	.	.	.	.
16DLL	7 4 2	.	.	.	.	8A	8ee	8gg	8ee	8gg	8AA	8a	8ee	8ggL
16E	.	.	.	.	.	.	.	.	.	.	.	.	.	.
16F#	6	.	.	.	.	8aJ	8ddJ	8ff#J	8ddJ	8ff#J	8DJ	8aJ	8ddJ	8ff#J
16GJJ	.	.	.	.	.	.	.	.	.	.	.	.	.	.
16ALL	6 4	4r	4r	.	4r	8aL	8ddL	8ff#L	8ddL	8ff#L	8AAL	8aL	8ddL	8ff#L
16G#X	.	.	.	.	.	.	.	.	.	.	.	.	.	.
16A	5 3	.	.	.	.	8A	8cc#J	8eeJ	8cc#J	8eeJ	8AAJ	8aJ	8aJ	8eeJ
16BJJ	.	.	.	.	.	.	.	.	.	.	.	.	.	.
16ALL	4 2 5	8AL	4e	4b	4dd	8B	16r	16r	4dd	4dd	4r	4r	4r	4r
16G#	.	.	.	.	.	.	16g#XLL	16g#XLL	.	.	.	.	.	.
16F#	.	8G#XJ	.	.	.	8eJ	16a	16a	.	.	.	.	.	.
16EJJ	.	.	.	.	.	.	16bJJ	16bJJ	.	.	.	.	.	.
=24	=24	=24	=24	=24	=24	=24	=24	=24	=24	=24	=24	=24	=24	=24
!!pagebreak:original
8AL	.	8AL	4e	4a	4cc#	8eL	16cc#LL	16cc#LL	4cc#	4cc#	1r	1r	1r	2r
.	.	.	.	.	.	.	16a	16a	.	.	.	.	.	.
8G	.	8Gn	.	.	.	8a	16cc#	16cc#	.	.	.	.	.	.
.	.	.	.	.	.	.	16eeJJ	16eeJJ	.	.	.	.	.	.
8F#	6	8F#	4d	8aL	4a	8d	16aaLL	16aaLL	4a	4a	.	.	.	.
.	.	.	.	.	.	.	16f#	16f#	.	.	.	.	.	.
8DJ	.	8DJ	.	16gL	.	8dJ	16g	16g	.	.	.	.	.	.
.	.	.	.	16f#JJ	.	.	16aJJ	16aJJ	.	.	.	.	.	.
8GL	.	8GL	4d	4g	4b	8dL	16bLL	16bLL	4b	4b	.	.	.	4r
.	.	.	.	.	.	.	16g	16g	.	.	.	.	.	.
8F#	.	8F#	.	.	.	8g	16b	16b	.	.	.	.	.	.
.	.	.	.	.	.	.	16ddJJ	16ddJJ	.	.	.	.	.	.
8E	6	8E	8eL	8gL	4cc#	8g	8gg	8gg	4cc#	4cc#	.	.	.	8r
8AJ	7 5	8AJ	8c#J	8eJ	.	8eJ	8r	8r	.	.	.	.	.	8aa
=25	=25	=25	=25	=25	=25	=25	=25	=25	=25	=25	=25	=25	=25	=25
8BL	5 3	8BL	4.f#	4.d	2dd	8B	2r	2r	2dd	2dd	2r	2r	2r	16ff#LL
.	.	.	.	.	.	.	.	.	.	.	.	.	.	16ff#
8A	.	8A	.	.	.	8r	.	.	.	.	.	.	.	16gg
.	.	.	.	.	.	.	.	.	.	.	.	.	.	16aaJJ
8B	.	8B	.	.	.	4r	.	.	.	.	.	.	.	16ff#LL
.	.	.	.	.	.	.	.	.	.	.	.	.	.	16ff#
8GJ	.	8GJ	8B	8b	.	.	.	.	.	.	.	.	.	16gg
.	.	.	.	.	.	.	.	.	.	.	.	.	.	16aaJJ
8DL	5	4D	4f#	4a	4dd	8r	8r	8r	8ddL	8ddL	8r	8r	8r	8ff#L
16dL	.	.	.	.	.	16ddLL	16ff#LL	16bbLL	16ff#L	16bbL	16DLL	16ddLL	16ff#LL	8bbJ
16c#JJ	.	.	.	.	.	16aJJ	16eeJJ	16aaJJ	16eeJJ	16aaJJ	16DJJ	16aJJ	16eeJJ	.
8dL	6	4r	4r	4r	4r	8f#	8ff#	8bb	8ff#	8bb	8D	8f#	8ff#	16r
.	.	.	.	.	.	.	.	.	.	.	.	.	.	16aaLL
8BJ	.	.	.	.	.	8r	8r	8r	8r	8r	8r	8r	8r	16gg
.	.	.	.	.	.	.	.	.	.	.	.	.	.	16ff#JJ
=26	=26	=26	=26	=26	=26	=26	=26	=26	=26	=26	=26	=26	=26	=26
!!pagebreak:original
8C#L	6_	1r	1r	1r	1r	4r	4r	4r	8r	8r	2r	2r	2r	16eeLL
.	.	.	.	.	.	.	.	.	.	.	.	.	.	16ee
8BB	.	.	.	.	.	.	.	.	8aL	8ddL	.	.	.	16ff#
.	.	.	.	.	.	.	.	.	.	.	.	.	.	16ggJJ
8C#	.	.	.	.	.	8r	8r	8r	8aJ	8eeJ	.	.	.	16eeLL
.	.	.	.	.	.	.	.	.	.	.	.	.	.	16ee
8BBJ	.	.	.	.	.	8b	8a	8dd	8r	8r	.	.	.	16ff#
.	.	.	.	.	.	.	.	.	.	.	.	.	.	16ggJJ
8C#L	6	.	.	.	.	8eL	8aL	8eeL	8r	8r	8r	8r	8r	8eeL
16c#L	6	.	.	.	.	16AL	16eeL	16aaL	16eeLL	16aaLL	16AALL	16aLL	16eeLL	8aaJ
16BJJ	.	.	.	.	.	16BJJ	16ddJJ	16ggJJ	16ddJJ	16ggJJ	16AAJJ	16aJJ	16ddJJ	.
8c#L	.	.	.	.	.	8A	8ee	8aa	8ee	8aa	8AA	8a	8ee	16r
.	.	.	.	.	.	.	.	.	.	.	.	.	.	16ggLL
8AJ	.	.	.	.	.	8r	8r	8r	8r	8r	8r	8r	8r	16ff#
.	.	.	.	.	.	.	.	.	.	.	.	.	.	16eeJJ
=27	=27	=27	=27	=27	=27	=27	=27	=27	=27	=27	=27	=27	=27	=27
8BBL	5	4r	4r	4r	4r	8r	8r	8r	4r	4r	1r	1r	1r	16ddLL
.	.	.	.	.	.	.	.	.	.	.	.	.	.	16ddd
8B	.	.	.	.	.	8f#L	8bL	8ddL	.	.	.	.	.	16ccc#
.	.	.	.	.	.	.	.	.	.	.	.	.	.	16bbJJ
8F#	6	8F#L	4d	8aL	4a	8f#	8a	8dd	4a	4a	.	.	.	16ddLL
.	.	.	.	.	.	.	.	.	.	.	.	.	.	16ccc#
8DJ	.	8DJ	.	8f#J	.	8f#J	8aJ	8ddJ	.	.	.	.	.	16bb
.	.	.	.	.	.	.	.	.	.	.	.	.	.	16aaJJ
8GGL	.	4G	4d	4g	4b	8r	8r	8r	4b	4b	.	.	.	16ddLL
.	.	.	.	.	.	.	.	.	.	.	.	.	.	16bb
8G	.	.	.	.	.	8BL	8gL	8ddL	.	.	.	.	.	16aa
.	.	.	.	.	.	.	.	.	.	.	.	.	.	16ggJJ
8D	5 3	8DL	4d	4f#	4a	8f#	8a	8dd	4a	4a	.	.	.	16ddLL
.	.	.	.	.	.	.	.	.	.	.	.	.	.	16aa
8BBJ	.	8BBJ	.	.	.	8f#J	8bJ	8ddJ	.	.	.	.	.	16gg
.	.	.	.	.	.	.	.	.	.	.	.	.	.	16ff#JJ
=28	=28	=28	=28	=28	=28	=28	=28	=28	=28	=28	=28	=28	=28	=28
!!pagebreak:original
16EELL	9	4E	4B	8f#L	4g	8r	8r	8r	4g	4g	1r	1r	1r	8ggL
16FF#	.	.	.	.	.	.	.	.	.	.	.	.	.	.
16GG	6	.	.	8eJ	.	8eL	8bL	8eeL	.	.	.	.	.	8ee
16AAJJ	.	.	.	.	.	.	.	.	.	.	.	.	.	.
16BBLL	6 4	4E	8BL	4e	8gL	8e	8b	8ee	8gL	8gL	.	.	.	8ee
16D	.	.	.	.	.	.	.	.	.	.	.	.	.	.
16C#	.	.	8A#XJ	.	8f#J	8A#XJ	8cc#J	8eeJ	8f#J	8f#J	.	.	.	8f#J
16BBJJ	.	.	.	.	.	.	.	.	.	.	.	.	.	.
16AA#XLL	6 5	4F#	4A#	4c#	4f#	8r	8r	8r	4e	4f#	.	.	.	8f#L
16FF#	.	.	.	.	.	.	.	.	.	.	.	.	.	.
16AA#	.	.	.	.	.	8f#L	8cc#L	8eeL	.	.	.	.	.	8f#
16C#JJ	.	.	.	.	.	.	.	.	.	.	.	.	.	.
16F#LL	7 #	4r	4r	4r	4r	8c#	8a#X	8ee	8r	8r	.	.	.	8f#
16E	.	.	.	.	.	.	.	.	.	.	.	.	.	.
16D	.	.	.	.	.	8f#J	8a#J	8eeJ	8ff#	8ff#	.	.	.	8f#J
16C#JJ	.	.	.	.	.	.	.	.	.	.	.	.	.	.
=29	=29	=29	=29	=29	=29	=29	=29	=29	=29	=29	=29	=29	=29	=29
8BBL	.	1r	1r	1r	1r	4f#	4b	4dd	16bbLL	16bbLL	1r	1r	1r	8f#L
.	.	.	.	.	.	.	.	.	16ccc#	16ccc#	.	.	.	.
8BJ	.	.	.	.	.	.	.	.	16ddd	16ddd	.	.	.	8f#
.	.	.	.	.	.	.	.	.	16ccc#JJ	16ccc#JJ	.	.	.	.
4r	.	.	.	.	.	4r	4r	16r	8bbL	8bbL	.	.	.	8f#
.	.	.	.	.	.	.	.	16f#LL	.	.	.	.	.	.
.	.	.	.	.	.	.	.	16g#X	8ff#J	8ff#J	.	.	.	8f#J
.	.	.	.	.	.	.	.	16a#XJJ	.	.	.	.	.	.
2r	.	.	.	.	.	2r	16r	16bLL	8ff#L	8ff#L	.	.	.	8f#L
.	.	.	.	.	.	.	16f#LL	16f#	.	.	.	.	.	.
.	.	.	.	.	.	.	16g#X	16b	8dd	8dd	.	.	.	8f#
.	.	.	.	.	.	.	16a#XJJ	16cc#JJ	.	.	.	.	.	.
.	.	.	.	.	.	.	16bLL	16ddLL	8dd	8dd	.	.	.	8f#
.	.	.	.	.	.	.	16f#	16b	.	.	.	.	.	.
.	.	.	.	.	.	.	16b	16dd	8bJ	8bJ	.	.	.	8f#J
.	.	.	.	.	.	.	16cc#JJ	16eeJJ	.	.	.	.	.	.
=30	=30	=30	=30	=30	=30	=30	=30	=30	=30	=30	=30	=30	=30	=30
!!pagebreak:original
8r	.	1r	1r	1r	1r	8r	8ddL	8ff#L	8bL	8bL	1r	8r	8r	8f#L
16BBLL	.	.	.	.	.	8BL	8dd	8ff#	8dd	8ff#	.	16f#LL	16f#LL	16f#L
16AA#XJJ	.	.	.	.	.	.	.	.	.	.	.	16f#JJ	16f#JJ	16f#JJ
16BBLL	#7\ 4 2	.	.	.	.	8F#	8cc#	8ee	8cc#	8ee	.	8f#L	8f#L	8f#L
16C#	.	.	.	.	.	.	.	.	.	.	.	.	.	.
16D	6	.	.	.	.	8f#J	8bJ	8ddJ	8bJ	8ddJ	.	8f#J	8f#J	8f#J
16EJJ	.	.	.	.	.	.	.	.	.	.	.	.	.	.
16F#LL	6 4	.	.	.	.	8f#L	8bL	8ddL	8bL	8ddL	.	4f#	4f#	4f#
16E	.	.	.	.	.	.	.	.	.	.	.	.	.	.
16F#	5 #	.	.	.	.	8F#J	8a#XJ	8cc#J	8a#XJ	8cc#J	.	.	.	.
16GJJ	.	.	.	.	.	.	.	.	.	.	.	.	.	.
16F#LL	.	.	.	.	.	4r	16r	16r	4r	4r	.	4r	4r	4r
16E	.	.	.	.	.	.	16ggLL	16ggLL	.	.	.	.	.	.
16D	7 #5| 2	.	.	.	.	.	16ff#	16ff#	.	.	.	.	.	.
16C#JJ	.	.	.	.	.	.	16eeJJ	16eeJJ	.	.	.	.	.	.
=31	=31	=31	=31	=31	=31	=31	=31	=31	=31	=31	=31	=31	=31	=31
8BBL	.	2r	2r	2r	2r	2r	16ddLL	16ddLL	8r	8r	1r	1r	1r	4r
.	.	.	.	.	.	.	16dd	16dd	.	.	.	.	.	.
8AA#X	7 5	.	.	.	.	.	16ee	16ee	8gL	8cc#L	.	.	.	.
.	.	.	.	.	.	.	16ff#JJ	16ff#JJ	.	.	.	.	.	.
8BB	5 3	.	.	.	.	.	16ddLL	16ddLL	8f#J	8ddJ	.	.	.	8r
.	.	.	.	.	.	.	16dd	16dd	.	.	.	.	.	.
8AAnJ	.	.	.	.	.	.	16ee	16ee	8r	8r	.	.	.	8bb
.	.	.	.	.	.	.	16ff#JJ	16ff#JJ	.	.	.	.	.	.
8GG#XL	6 5	4r	4r	4r	4r	8r	8eeL	8eeL	8r	8r	.	.	.	8ee
16G#XL	.	.	.	.	.	16BLL	8bbJ	8bbJ	16eeLL	16bbLL	.	.	.	8r
16F#JJ	.	.	.	.	.	16c#JJ	.	.	16ff#JJ	16aaJJ	.	.	.	.
8G#L	._	8G#XL	4e	4b	4dd	8BL	16r	16r	8eeL	8bbL	.	.	.	4r
.	..	.	.	.	.	.	16ff#LL	16ff#LL	.	.	.	.	.	.
8EJ	.	8EJ	.	.	.	8g#XJ	16ee	16ee	8ddJ	8ddJ	.	.	.	.
.	.	.	.	.	.	.	16ddJJ	16ddJJ	.	.	.	.	.	.
=32	=32	=32	=32	=32	=32	=32	=32	=32	=32	=32	=32	=32	=32	=32
!!pagebreak:original
8AAL	.	4.A	4.e	4.a	4cc#	8eL	16cc#LL	16cc#LL	4cc#	4cc#	1r	1r	1r	1r
.	.	.	.	.	.	.	16cc#	16cc#	.	.	.	.	.	.
8GG#X	.	.	.	.	.	8e	16dd	16dd	.	.	.	.	.	.
.	.	.	.	.	.	.	16eeJJ	16eeJJ	.	.	.	.	.	.
8AA	.	.	.	.	4ee	8A	16cc#LL	16cc#LL	4ee	4ee	.	.	.	.
.	.	.	.	.	.	.	16cc#	16cc#	.	.	.	.	.	.
8GG#J	6	8G#X	8B	8e	.	8BJ	16dd	16dd	.	.	.	.	.	.
.	.	.	.	.	.	.	16eeJJ	16eeJJ	.	.	.	.	.	.
8FF#L	6	4.F#	4.A	4.f#	4dd	8f#L	8ddL	8ddL	4dd	4dd	.	.	.	.
16F#L	.	.	.	.	.	8d	8aaJ	8aaJ	.	.	.	.	.	.
16EJJ	.	.	.	.	.	.	.	.	.	.	.	.	.	.
8F#L	5	.	.	.	4cc#	8a	16r	16r	4cc#	4cc#	.	.	.	.
.	.	.	.	.	.	.	16cc#LL	16cc#LL	.	.	.	.	.	.
8C#J	.	8C#	8A	8e	.	8eJ	16b	16b	.	.	.	.	.	.
.	.	.	.	.	.	.	16aJJ	16aJJ	.	.	.	.	.	.
=33	=33	=33	=33	=33	=33	=33	=33	=33	=33	=33	=33	=33	=33	=33
8DL	6 5	8DL	8AL	8f#L	2b	8f#L	16bLL	16bLL	2b	2b	1r	1r	1r	4r
.	.	.	.	.	.	.	16aa	16aa	.	.	.	.	.	.
8BB	.	8BBJ	8BJ	8dJ	.	8b	16gg#X	16gg#X	.	.	.	.	.	.
.	.	.	.	.	.	.	16ff#JJ	16ff#JJ	.	.	.	.	.	.
8E	#	4E	4G#X	4e	.	8b	16eeLL	16eeLL	.	.	.	.	.	8r
.	.	.	.	.	.	.	16dd	16dd	.	.	.	.	.	.
8EEJ	.	.	.	.	.	8g#XJ	16cc#	16cc#	.	.	.	.	.	8gg#X
.	.	.	.	.	.	.	16bJJ	16bJJ	.	.	.	.	.	.
8AAL	.	4AA	4A	4e	4cc#	4e	4a	4a	4cc#	4cc#	.	.	.	16aaLL
.	.	.	.	.	.	.	.	.	.	.	.	.	.	16bb
8AJ	.	.	.	.	.	.	.	.	.	.	.	.	.	16ccc#
.	.	.	.	.	.	.	.	.	.	.	.	.	.	16bbJJ
4r	.	4r	4r	4r	4r	4r	4r	4r	4r	16r	.	.	.	8aaL
.	.	.	.	.	.	.	.	.	.	16eLL	.	.	.	.
.	.	.	.	.	.	.	.	.	.	16f#	.	.	.	8eeJ
.	.	.	.	.	.	.	.	.	.	16g#XJJ	.	.	.	.
=34	=34	=34	=34	=34	=34	=34	=34	=34	=34	=34	=34	=34	=34	=34
!!pagebreak:original
2r	.	1r	1r	1r	1r	2r	2r	2r	16r	16aLL	1r	1r	1r	8eeL
.	.	.	.	.	.	.	.	.	16eLL	16g#X	.	.	.	.
.	.	.	.	.	.	.	.	.	16f#	16a	.	.	.	8aa
.	.	.	.	.	.	.	.	.	16g#XJJ	16bJJ	.	.	.	.
.	.	.	.	.	.	.	.	.	16aLL	16cc#LL	.	.	.	8aa
.	.	.	.	.	.	.	.	.	16g#	16b	.	.	.	.
.	.	.	.	.	.	.	.	.	16a	16cc#	.	.	.	8aJ
.	.	.	.	.	.	.	.	.	16bJJ	16ddJJ	.	.	.	.
8r	.	.	.	.	.	8r	8r	8r	8cc#L	8eeL	.	.	.	8aL
16AALL	.	.	.	.	.	8AL	8eeL	8ccc#L	8ee	8ccc#	.	.	.	16eeL
16GG#XJJ	.	.	.	.	.	.	.	.	.	.	.	.	.	16eeJJ
16AALL	7 4 2	.	.	.	.	8E	8dd	8bb	8dd	8bb	.	.	.	8eeL
16BB	.	.	.	.	.	.	.	.	.	.	.	.	.	.
16C#	6	.	.	.	.	8eJ	8cc#J	8aaJ	8cc#J	8aaJ	.	.	.	8eeJ
16DJJ	.	.	.	.	.	.	.	.	.	.	.	.	.	.
=35	=35	=35	=35	=35	=35	=35	=35	=35	=35	=35	=35	=35	=35	=35
16ELL	6 4	1r	1r	1r	1r	8eL	8cc#L	8aaL	8cc#L	8aaL	1r	2r	8r	16eeLL
16F#	.	.	.	.	.	.	.	.	.	.	.	.	.	16ff#
16G#X	6	.	.	.	.	8EJ	8bJ	8gg#XJ	8bJ	8gg#XJ	.	.	16eeLL	16gg#X
16F#JJ	.	.	.	.	.	.	.	.	.	.	.	.	16ff#JJ	16aaJJ
16FnLL	6 5	.	.	.	.	8r	8r	8r	8r	8r	.	.	8gg#X	8bb
16D#X	.	.	.	.	.	.	.	.	.	.	.	.	.	.
16F	.	.	.	.	.	8c#	8gg#X	8bb	8cc#	8cc#	.	.	8r	8r
16C#JJ	.	.	.	.	.	.	.	.	.	.	.	.	.	.
8F#XL	4	.	.	.	.	8c#L	8ff#L	8bbL	16ff#LL	16ff#LL	.	8r	8r	8r
.	.	.	.	.	.	.	.	.	16gg#X	16gg#	.	.	.	.
8FF#J	3	.	.	.	.	8f#J	8cc#J	8aaJ	16aa	16aa	.	16f#LL	16ff#LL	16aaLL
.	.	.	.	.	.	.	.	.	16gg#JJ	16gg#JJ	.	16f#JJ	16gg#JJ	16bbJJ
4r	.	.	.	.	.	4r	4r	16r	8ff#L	8ff#L	.	8f#	8aa	8ccc#
.	.	.	.	.	.	.	.	16cc#LL	.	.	.	.	.	.
.	.	.	.	.	.	.	.	16dd#X	8cc#J	8cc#J	.	8r	8r	8r
.	.	.	.	.	.	.	.	16ffnJJ	.	.	.	.	.	.
=36	=36	=36	=36	=36	=36	=36	=36	=36	=36	=36	=36	=36	=36	=36
!!pagebreak:original
2r	.	1r	1r	1r	1r	2r	16r	16ff#LL	8cc#L	8cc#L	1r	1r	1r	1r
.	.	.	.	.	.	.	16cc#LL	16cc#	.	.	.	.	.	.
.	.	.	.	.	.	.	16dd#X	16ff#	8a	8a	.	.	.	.
.	.	.	.	.	.	.	16ffnJJ	16gg#XJJ	.	.	.	.	.	.
.	.	.	.	.	.	.	16ff#XLL	16aaLL	8a	8a	.	.	.	.
.	.	.	.	.	.	.	16cc#	16ff#	.	.	.	.	.	.
.	.	.	.	.	.	.	16ff#	16aa	8f#J	8f#J	.	.	.	.
.	.	.	.	.	.	.	16gg#XJJ	16bbJJ	.	.	.	.	.	.
8r	.	.	.	.	.	8r	8aa#XL	8ccc#L	8f#L	8f#L	.	.	.	.
16FF#LL	9 7 #	.	.	.	.	16a#XLL	8ee	8ggn	8ee	8gg	.	.	.	.
16EEJJ	.	.	.	.	.	16g#XJJ	.	.	.	.	.	.	.	.
16FF#LL	8 6 #	.	.	.	.	16a#LL	8ddn	8ff#	8dd	8ff#	.	.	.	.
16GG#X	.	.	.	.	.	16b	.	.	.	.	.	.	.	.
16AA#X	6 5	.	.	.	.	16cc#	8cc#J	8eeJ	8cc#J	8eeJ	.	.	.	.
16FF#JJ	.	.	.	.	.	16a#JJ	.	.	.	.	.	.	.	.
=37	=37	=37	=37	=37	=37	=37	=37	=37	=37	=37	=37	=37	=37	=37
8BBL	.	1r	1r	1r	1r	8f#L	16bLL	16ddLL	8bL	8ddL	1r	1r	1r	1r
.	.	.	.	.	.	.	16f#	16b	.	.	.	.	.	.
8BJ	.	.	.	.	.	8F#J	16b	16dd	8b	8b	.	.	.	.
.	.	.	.	.	.	.	16cc#JJ	16eeJJ	.	.	.	.	.	.
4r	.	.	.	.	.	4r	16ddLL	16ff#LL	8b	8b	.	.	.	.
.	.	.	.	.	.	.	16f#	16b	.	.	.	.	.	.
.	.	.	.	.	.	.	16b	16dd	8g#XJ	8g#XJ	.	.	.	.
.	.	.	.	.	.	.	16cc#JJ	16ff#JJ	.	.	.	.	.	.
8r	.	.	.	.	.	8r	8ddL	8bbL	8g#L	8g#L	.	.	.	.
16EELL	9 7 #	.	.	.	.	16g#XLL	8dd	8ff#	8dd	8ff#	.	.	.	.
16DDJJ	.	.	.	.	.	16f#JJ	.	.	.	.	.	.	.	.
16EELL	6 8	.	.	.	.	16g#LL	8cc#	8ee	8cc#	8ee	.	.	.	.
16FF#	.	.	.	.	.	16a	.	.	.	.	.	.	.	.
16GG#X	6 5	.	.	.	.	16b	8bJ	8ddJ	8bJ	8ddJ	.	.	.	.
16EEJJ	.	.	.	.	.	16g#JJ	.	.	.	.	.	.	.	.
=38	=38	=38	=38	=38	=38	=38	=38	=38	=38	=38	=38	=38	=38	=38
!!pagebreak:original
8AAL	.	2r	2r	2r	2r	8eL	16aLL	16cc#LL	8aL	8cc#L	1r	1r	1r	1r
.	.	.	.	.	.	.	16e	16a	.	.	.	.	.	.
8AJ	.	.	.	.	.	8EJ	16a	16cc#	8a	8a	.	.	.	.
.	.	.	.	.	.	.	16bJJ	16ddJJ	.	.	.	.	.	.
4r	.	.	.	.	.	4r	16cc#LL	16eeLL	8a	8a	.	.	.	.
.	.	.	.	.	.	.	16e	16a	.	.	.	.	.	.
.	.	.	.	.	.	.	16a	16cc#	8f#J	8f#J	.	.	.	.
.	.	.	.	.	.	.	16bJJ	16eeJJ	.	.	.	.	.	.
8r	.	4r	4r	4r	4r	8r	8ccnL	8aaL	8f#L	8f#L	.	.	.	.
16DDLL	9 nr7	.	.	.	.	16f#LL	8cc	8ee	8ccn	8ee	.	.	.	.
16CCnJJ	.	.	.	.	.	16eJJ	.	.	.	.	.	.	.	.
16DDLL	8 6	4D	4d	4f#	4f#	16f#LL	8b	8dd	8b	8dd	.	.	.	.
16EE	.	.	.	.	.	16g	.	.	.	.	.	.	.	.
16FF#	6 nr5	.	.	.	.	16a	8aJ	8ccnJ	8aJ	8ccnJ	.	.	.	.
16DDJJ	.	.	.	.	.	16f#JJ	.	.	.	.	.	.	.	.
=39	=39	=39	=39	=39	=39	=39	=39	=39	=39	=39	=39	=39	=39	=39
8EEL	5	4E	8dL	8BL	4g	8gL	16gLL	16bLL	4g	8bL	1r	1r	1r	2r
.	.	.	.	.	.	.	16e	16g	.	.	.	.	.	.
8E	6	.	16c#L	8eJ	.	8G	16b	16b	.	8g	.	.	.	.
.	.	.	16BJJ	.	.	.	16cc#JJ	16cc#JJ	.	.	.	.	.	.
8F#	6	8F#L	4A	4d	4f#	8A	16ddLL	16ddLL	4f#	8f#	.	.	.	.
.	.	.	.	.	.	.	16gg	16gg	.	.	.	.	.	.
8GJ	.	8GJ	.	.	.	8DJ	16ff#	16ff#	.	8ddJ	.	.	.	.
.	.	.	.	.	.	.	16eeJJ	16eeJJ	.	.	.	.	.	.
8AL	5 4	8AL	4A	8dL	4e	8AL	16ddLL	16ddLL	4e	8eL	.	.	.	4r
.	.	.	.	.	.	.	16ff#	16ff#	.	.	.	.	.	.
8G	.	8G	.	16c#L	.	8B	16ee	16ee	.	8dd	.	.	.	.
.	.	.	.	16BJJ	.	.	16ddJJ	16ddJJ	.	.	.	.	.	.
8A	3	8A	4A	4c#	4a	8c#	16aLL	16aLL	4a	8cc#	.	.	.	16r
.	.	.	.	.	.	.	16ee	16ee	.	.	.	.	.	16ggLL
8AAJ	.	8AAJ	.	.	.	8eJ	16dd	16dd	.	8aJ	.	.	.	16ff#
.	.	.	.	.	.	.	16cc#JJ	16cc#JJ	.	.	.	.	.	16eeJJ
=40	=40	=40	=40	=40	=40	=40	=40	=40	=40	=40	=40	=40	=40	=40
!!pagebreak:original
8DL	.	1D	1A	1d	1f#	8f#L	8aL	8dL	2f#	4f#	1r	1r	1r	16ddLL
.	.	.	.	.	.	.	.	.	.	.	.	.	.	16ee
8DDJ	.	.	.	.	.	8d	8f#	8a	.	.	.	.	.	16ff#
.	.	.	.	.	.	.	.	.	.	.	.	.	.	16eeJJ
4r	.	.	.	.	.	8d	8f#	8a	.	16r	.	.	.	8ddL
.	.	.	.	.	.	.	.	.	.	16aLL	.	.	.	.
.	.	.	.	.	.	8aJ	8dJ	8f#J	.	16b	.	.	.	8aJ
.	.	.	.	.	.	.	.	.	.	16cc#JJ	.	.	.	.
2r	.	.	.	.	.	8aL	8dL	8f#L	16r	16ddLL	.	.	.	8aL
.	.	.	.	.	.	.	.	.	16aLL	16a	.	.	.	.
.	.	.	.	.	.	8f#	8A	8d	16b	16dd	.	.	.	8f#
.	.	.	.	.	.	.	.	.	16cc#JJ	16eeJJ	.	.	.	.
.	.	.	.	.	.	8f#	8A	8d	16ddLL	16ff#LL	.	.	.	8f#
.	.	.	.	.	.	.	.	.	16a	16dd	.	.	.	.
.	.	.	.	.	.	8dJ	8dJ	8AJ	16dd	16ff#	.	.	.	8dJ
.	.	.	.	.	.	.	.	.	16eeJJ	16ggJJ	.	.	.	.
=41	=41	=41	=41	=41	=41	=41	=41	=41	=41	=41	=41	=41	=41	=41
8r	.	1r	1r	1r	1r	8dL	8dL	8AL	8ff#L	8aaL	8r	8r	8r	8dL
16DLL	.	.	.	.	.	8d	8ff#	8aa	8ff#	8aa	8DL	8aL	8ff#L	8aa
16C#JJ	.	.	.	.	.	.	.	.	.	.	.	.	.	.
16DLL	7 4 2	.	.	.	.	8A	8ee	8gg	8ee	8gg	8AA	8a	8ee	8gg
16E	.	.	.	.	.	.	.	.	.	.	.	.	.	.
16F#	6	.	.	.	.	8aJ	8ddJ	8ff#J	8ddJ	8ff#J	8DJ	8aJ	8ddJ	8ff#J
16GJJ	.	.	.	.	.	.	.	.	.	.	.	.	.	.
16ALL	6 4	.	.	.	.	8aL	8ddL	8ff#L	8ddL	8ff#L	8AAL	8aL	8ddL	8ff#L
16G	.	.	.	.	.	.	.	.	.	.	.	.	.	.
16A	5 3	.	.	.	.	8AJ	8cc#J	8eeJ	8cc#J	8eeJ	8AAJ	8aJ	8aJ	8eeJ
16BJJ	.	.	.	.	.	.	.	.	.	.	.	.	.	.
16ALL	.	.	.	.	.	4r	4r	4r	4r	4r	4r	4r	4r	8r
16G	.	.	.	.	.	.	.	.	.	.	.	.	.	.
16F#	.	.	.	.	.	.	.	.	.	.	.	.	.	8a
16EJJ	.	.	.	.	.	.	.	.	.	.	.	.	.	.
=42	=42	=42	=42	=42	=42	=42	=42	=42	=42	=42	=42	=42	=42	=42
!!pagebreak:original
8DL	.	1r	1r	1r	1r	1r	1r	1r	8r	4r	1r	1r	1r	16ddLL
.	.	.	.	.	.	.	.	.	.	.	.	.	.	16eeJ
8DDJ	.	.	.	.	.	.	.	.	8ddL	.	.	.	.	[8ff#J
4r	.	.	.	.	.	.	.	.	8dd	8r	.	.	.	16ff#LL]
.	.	.	.	.	.	.	.	.	.	.	.	.	.	16gg
.	.	.	.	.	.	.	.	.	8aJ	8dd	.	.	.	16ff#
.	.	.	.	.	.	.	.	.	.	.	.	.	.	16eeJJ
2r	.	.	.	.	.	.	.	.	8aL	8ddL	.	.	.	16ff#LL
.	.	.	.	.	.	.	.	.	.	.	.	.	.	16eeJ
.	.	.	.	.	.	.	.	.	8f#	8a	.	.	.	[8ddJ
.	.	.	.	.	.	.	.	.	8f#	8a	.	.	.	16ddLL]
.	.	.	.	.	.	.	.	.	.	.	.	.	.	16a
.	.	.	.	.	.	.	.	.	8dJ	8f#J	.	.	.	16dd
.	.	.	.	.	.	.	.	.	.	.	.	.	.	16eeJJ
=43	=43	=43	=43	=43	=43	=43	=43	=43	=43	=43	=43	=43	=43	=43
8r	.	1r	1r	1r	1r	8r	8r	8r	8dL	8f#L	8r	8r	8r	16ff#LL
.	.	.	.	.	.	.	.	.	.	.	.	.	.	16ddJ
16DLL	.	.	.	.	.	8dL	8ff#L	8aaL	8ff#	8aa	8DL	8aL	8ff#L	8aaJ
16C#JJ	.	.	.	.	.	.	.	.	.	.	.	.	.	.
16DLL	7 4 2	.	.	.	.	8A	8ee	8gg	8ee	8gg	8AA	8a	8ee	8ggL
16E	.	.	.	.	.	.	.	.	.	.	.	.	.	.
16F#	6	.	.	.	.	8aJ	8ddJ	8ff#J	8ddJ	8ff#J	8DJ	8aJ	8ddJ	8ff#J
16GJJ	.	.	.	.	.	.	.	.	.	.	.	.	.	.
16ALL	6 4	.	.	.	.	8aL	8ddL	8ff#L	8ddL	8ff#L	8AAL	8aL	8ddL	8ff#L
16G	.	.	.	.	.	.	.	.	.	.	.	.	.	.
16A	5 3	.	.	.	.	8AJ	8cc#J	8eeJ	8cc#J	8eeJ	8AAJ	8aJ	8aJ	8eeJ
16BJJ	.	.	.	.	.	.	.	.	.	.	.	.	.	.
16ALL	.	.	.	.	.	4r	4r	4r	4r	4r	4r	4r	4r	8r
16G	.	.	.	.	.	.	.	.	.	.	.	.	.	.
16F#	.	.	.	.	.	.	.	.	.	.	.	.	.	8aa
16EJJ	.	.	.	.	.	.	.	.	.	.	.	.	.	.
=44	=44	=44	=44	=44	=44	=44	=44	=44	=44	=44	=44	=44	=44	=44
!!pagebreak:original
8DL	.	1r	1r	1r	1r	4r	4r	4r	8r	8r	2r	2r	2r	16ff#LL
.	.	.	.	.	.	.	.	.	.	.	.	.	.	16ff#
8C#	6 5	.	.	.	.	.	.	.	8aL	8eeL	.	.	.	16gg
.	.	.	.	.	.	.	.	.	.	.	.	.	.	16aaJJ
8D	.	.	.	.	.	8r	8r	8r	8aJ	8ff#J	.	.	.	16ff#LL
.	.	.	.	.	.	.	.	.	.	.	.	.	.	16ff#
8C#J	6 5	.	.	.	.	8a	8ee	8ee	8r	8r	.	.	.	16gg
.	.	.	.	.	.	.	.	.	.	.	.	.	.	16aaJJ
8DL	5	.	.	.	.	8aL	8ddL	8ff#L	8r	8r	8r	8r	8r	8ff#L
16dL	6	.	.	.	.	16ddL	16ff#L	16bbL	16ff#LL	16bbLL	16DLL	16ddLL	16ff#LL	8bbJ
16c#JJ	.	.	.	.	.	16aJJ	16eeJJ	16aaJJ	16eeJJ	16aaJJ	16DJJ	16aJJ	16eeJJ	.
8dL	6	.	.	.	.	8f#	8ff#	8bb	8ff#	8bb	8D	8f#	8ff#	16r
.	.	.	.	.	.	.	.	.	.	.	.	.	.	16aaLL
8BJ	.	.	.	.	.	8r	8r	8r	8r	8r	8r	8r	8r	16gg
.	.	.	.	.	.	.	.	.	.	.	.	.	.	16ff#JJ
=45	=45	=45	=45	=45	=45	=45	=45	=45	=45	=45	=45	=45	=45	=45
8C#L	6_	1r	1r	1r	1r	4r	4r	4r	8r	8r	2r	2r	2r	16eeLL
.	.	.	.	.	.	.	.	.	.	.	.	.	.	16ee
8BB	.	.	.	.	.	.	.	.	8aL	8ddL	.	.	.	16ff#
.	.	.	.	.	.	.	.	.	.	.	.	.	.	16ggJJ
8C#	.	.	.	.	.	8r	8r	8r	8aJ	8eeJ	.	.	.	16eeLL
.	.	.	.	.	.	.	.	.	.	.	.	.	.	16ee
8BBJ	.	.	.	.	.	8b	8a	8dd	8r	8r	.	.	.	16ff#
.	.	.	.	.	.	.	.	.	.	.	.	.	.	16ggJJ
8C#L	6	.	.	.	.	8eL	8aL	8eeL	8r	8r	8r	8r	8r	8eeL
16c#L	.	.	.	.	.	16AL	16eeL	16aaL	16eeLL	16aaLL	16AALL	16aLL	16eeLL	8aaJ
16BJJ	.	.	.	.	.	16BJJ	16ddJJ	16ggJJ	16ddJJ	16ggJJ	16AAJJ	16aJJ	16ddJJ	.
8c#L	.	.	.	.	.	8A	8ee	8aa	8ee	8aa	8AA	8a	8ee	16r
.	.	.	.	.	.	.	.	.	.	.	.	.	.	16ggLL
8AJ	6 5	.	.	.	.	8r	8r	8r	8r	8r	8r	8r	8r	16ff#
.	.	.	.	.	.	.	.	.	.	.	.	.	.	16eeJJ
=46	=46	=46	=46	=46	=46	=46	=46	=46	=46	=46	=46	=46	=46	=46
!!pagebreak:original
8BBL	.	1r	1r	1r	1r	2f#	[1b	[1dd	8r	8r	1r	1r	1r	16ddLL
.	.	.	.	.	.	.	.	.	.	.	.	.	.	16ddd
8B	.	.	.	.	.	.	.	.	8ddL	8ff#L	.	.	.	16ccc#
.	.	.	.	.	.	.	.	.	.	.	.	.	.	16bbJJ
8A	6 4 2	.	.	.	.	.	.	.	8dd	8ff#	.	.	.	16ddLL
.	.	.	.	.	.	.	.	.	.	.	.	.	.	16ccc#
8AAJ	.	.	.	.	.	.	.	.	8ddJ	8ff#J	.	.	.	16bb
.	.	.	.	.	.	.	.	.	.	.	.	.	.	16aaJJ
8GGL	5	.	.	.	.	4B	.	.	8r	8r	.	.	.	16ddLL
.	.	.	.	.	.	.	.	.	.	.	.	.	.	16bb
8G	.	.	.	.	.	.	.	.	8ddL	8ggL	.	.	.	16aa
.	.	.	.	.	.	.	.	.	.	.	.	.	.	16ggJJ
8F#	6	.	.	.	.	4d	.	.	8ff#	8aa	.	.	.	16ddLL
.	.	.	.	.	.	.	.	.	.	.	.	.	.	16aa
8FF#J	.	.	.	.	.	.	.	.	8ff#J	8aaJ	.	.	.	16gg
.	.	.	.	.	.	.	.	.	.	.	.	.	.	16ff#JJ
=47	=47	=47	=47	=47	=47	=47	=47	=47	=47	=47	=47	=47	=47	=47
16EELL	.	1r	1r	1r	1r	8eL	8bL]	8ddL]	8r	8r	2r	2r	2r	8ggL
16FF#	.	.	.	.	.	.	.	.	.	.	.	.	.	.
16GG	6	.	.	.	.	8B	8bb	16eL	16ggLL	16bbLL	.	.	.	8ee
16AAJJ	.	.	.	.	.	.	.	16f#JJ	16ff#JJ	16aaJJ	.	.	.	.
16BBLL	6 4	.	.	.	.	8e	8gg	16gLL	8ee	8gg	.	.	.	8ee
16C#	.	.	.	.	.	.	.	16e	.	.	.	.	.	.
16D	.	.	.	.	.	8aJ	8ddJ	16f#	8r	8r	.	.	.	8aJ
16BBJJ	.	.	.	.	.	.	.	16gJJ	.	.	.	.	.	.
16C#LL	6 5	.	.	.	.	8r	8r	16aLL	8r	8r	8r	8r	8r	8aL
16AA	.	.	.	.	.	.	.	16e	.	.	.	.	.	.
16C#	.	.	.	.	.	8aL	8eeL	16a	8aL	16ggLL	16AALL	16aLL	16eeLL	8ggJ
16EJJ	.	.	.	.	.	.	.	16cc#JJ	.	16ff#JJ	16AAJJ	16aJJ	16eeJJ	.
8AL	7	.	.	.	.	8e	8cc#	16eeLL	8cc#	8ggL	8AAL	8aL	8eeL	8r
.	.	.	.	.	.	.	.	16cc#	.	.	.	.	.	.
8C#J	6 5	.	.	.	.	8eJ	8eeJ	16a	8eeJ	8aaJ	8AAJ	8aJ	8eeJ	8aa
.	.	.	.	.	.	.	.	16aaJJ	.	.	.	.	.	.
=48	=48	=48	=48	=48	=48	=48	=48	=48	=48	=48	=48	=48	=48	=48
!!pagebreak:original
8DL	4	1r	1r	1r	1r	8f#L	8aL	16ggLL	8ddL	16ggLL	8DL	8aL	8ddL	16ggLL
.	3	.	.	.	.	.	.	16ff#	.	16ff#	.	.	.	16ff#
8BB	.	.	.	.	.	8f#	8b	16ee	8dd	16ee	16DL	16dL	8ff#J	16ee
.	.	.	.	.	.	.	.	16ddJJ	.	16ddJJ	16DJJ	16dJJ	.	16ddJJ
8GG	7 5	.	.	.	.	8B	8b	8ff#L	8dd	8ff#L	8DL	8dL	8bbL	8ff#L
8AAJ	.	.	.	.	.	8eJ	8cc#J	8eeJ	8cc#J	8eeJ	8AAJ	8aJ	16aaL	8eeJ
.	.	.	.	.	.	.	.	.	.	.	.	.	16ggJJ	.
8BBL	5	.	.	.	.	8b	8f#	8ddL	8dd	8ddL	8D	8d	8ff#	[4dd
16BL	.	.	.	.	.	8r	8r	16dddL	8r	16dddL	8r	8r	8r	.
16AJJ	.	.	.	.	.	.	.	16ccc#JJ	.	16ccc#JJ	.	.	.	.
8BL	.	.	.	.	.	8r	8r	8dddL	8r	8dddL	4r	4r	4r	16ddLL]
.	.	.	.	.	.	.	.	.	.	.	.	.	.	32eeL
.	.	.	.	.	.	.	.	.	.	.	.	.	.	32ff#J
8BBJ	6	.	.	.	.	8b	8gg	8ddJ	8dd	8ddJ	.	.	.	16gg
.	.	.	.	.	.	.	.	.	.	.	.	.	.	32ff#L
.	.	.	.	.	.	.	.	.	.	.	.	.	.	32eeJJJ
=49	=49	=49	=49	=49	=49	=49	=49	=49	=49	=49	=49	=49	=49	=49
8FF#L	6	1r	1r	1r	1r	8a	8aa	8ddL	8a	8ddL	8D	8f#	8aa	[4dd
16F#L	.	.	.	.	.	8r	8r	16aaL	8r	16aaL	8r	8r	8r	.
16EJJ	.	.	.	.	.	.	.	16ggJJ	.	16ggJJ	.	.	.	.
8F#L	.	.	.	.	.	8r	8r	8aaL	8r	8aaL	4r	4r	4r	16ddLL]
.	.	.	.	.	.	.	.	.	.	.	.	.	.	32eeL
.	.	.	.	.	.	.	.	.	.	.	.	.	.	32ff#J
8DJ	nr7	.	.	.	.	8a	8ccn	8ddJ	8aa	8ddJ	.	.	.	16gg
.	.	.	.	.	.	.	.	.	.	.	.	.	.	32ff#L
.	.	.	.	.	.	.	.	.	.	.	.	.	.	32eeJJJ
8GL	.	.	.	.	.	8g	8b	8bb	8gg	8bb	2r	2r	2r	16ddLL
.	.	.	.	.	.	.	.	.	.	.	.	.	.	32eeL
.	.	.	.	.	.	.	.	.	.	.	.	.	.	32ff#J
8GG	.	.	.	.	.	8r	8r	8r	8r	8r	.	.	.	16gg
.	.	.	.	.	.	.	.	.	.	.	.	.	.	32ff#L
.	.	.	.	.	.	.	.	.	.	.	.	.	.	32eeJJJ
8FF#	6	.	.	.	.	8a	8dd	8aa	8dd	8aa	.	.	.	16ddLL
.	.	.	.	.	.	.	.	.	.	.	.	.	.	32eeL
.	.	.	.	.	.	.	.	.	.	.	.	.	.	32ff#J
8F#J	.	.	.	.	.	8r	8r	8r	8r	8r	.	.	.	16gg
.	.	.	.	.	.	.	.	.	.	.	.	.	.	32ff#L
.	.	.	.	.	.	.	.	.	.	.	.	.	.	32eeJJJ
=50	=50	=50	=50	=50	=50	=50	=50	=50	=50	=50	=50	=50	=50	=50
!!pagebreak:original
8EL	.	2r	2r	2r	2r	8b	8ee	8gg#XL	8dd	8gg#XL	1r	1r	1r	8ddL
8EE	.	.	.	.	.	8r	8r	16ddL	8r	16ddL	.	.	.	8gg#XJ
.	.	.	.	.	.	.	.	16cc#JJ	.	16cc#JJ	.	.	.	.
8DD	6 #4| 2	.	.	.	.	8b	8ee	8bL	8g#X	8bL	.	.	.	16r
.	.	.	.	.	.	.	.	.	.	.	.	.	.	16bbLL
8DJ	.	.	.	.	.	8r	8r	8bbJ	8r	8bbJ	.	.	.	16aa
.	.	.	.	.	.	.	.	.	.	.	.	.	.	16gg#JJ
16C#LL	6 5	4r	4r	4r	4r	8e	8ee	8aaL	8e	8aaL	.	.	.	8aaL
16d	.	.	.	.	.	.	.	.	.	.	.	.	.	.
16c#	.	.	.	.	.	8r	8r	16aL	8r	16aL	.	.	.	8aJ
16BJJ	.	.	.	.	.	.	.	16bJJ	.	16bJJ	.	.	.	.
16ALL	7	4r	4r	4r	4r	8a	8ee	8cc#L	8ee	8cc#L	.	.	.	8r
16G	.	.	.	.	.	.	.	.	.	.	.	.	.	.
16F#	.	.	.	.	.	8r	8r	8ggnJ	8r	8ggnJ	.	.	.	8ggn
16EJJ	.	.	.	.	.	.	.	.	.	.	.	.	.	.
=51	=51	=51	=51	=51	=51	=51	=51	=51	=51	=51	=51	=51	=51	=51
16DLL	.	2r	2r	2r	2r	8aL	8aL	8ff#L	8aL	8ff#L	8r	8r	8r	8ff#L
16C#	.	.	.	.	.	.	.	.	.	.	.	.	.	.
16BB	.	.	.	.	.	8b	8ff#	8ddd	8ff#	8ddd	16DLL	8ddL	8ff#L	8ddd
16AAJJ	.	.	.	.	.	.	.	.	.	.	16DJJ	.	.	.
8GGL	6 5	.	.	.	.	8e	8gg	8ee	8gg	8ee	8DL	8gg	8bb	8ee
8AAJ	.	.	.	.	.	8aJ	8eeJ	8ccc#J	8eeJ	8ccc#J	8AAJ	8eeJ	8aaJ	8ccc#J
4DD;	.	4r;	4r;	4r;	4r;	4a;	4ff#;	4dd;	4dd;	4dd;	4D;	4ff#;	4aa;	4ddd;
=||	=||	=||	=||	=||	=||	=||	=||	=||	=||	=||	=||	=||	=||	=||
*-	*-	*-	*-	*-	*-	*-	*-	*-	*-	*-	*-	*-	*-	*-
!!!system-decoration: s1,s2,s3,s4,s5,s6,s7,s8,s9,s10,s11,s12,s13,s14
